openmetadata-ui/src/main/resources/ui/src/assets/svg/table.svg

<svg width="14" height="14" viewBox="0 0 14 14" fill="none" xmlns="http://www.w3.org/2000/svg">
<path d="M12.6875 0.875H1.3125C0.587617 0.875 0 1.46262 0 2.1875V11.8125C0 12.5374 0.587617 13.125 1.3125 13.125H12.6875C13.4124 13.125 14 12.5374 14 11.8125V2.1875C14 1.46262 13.4124 0.875 12.6875 0.875ZM6.125 11.375H1.75V8.75H6.125V11.375ZM6.125 7H1.75V4.375H6.125V7ZM12.25 11.375H7.875V8.75H12.25V11.375ZM12.25 7H7.875V4.375H12.25V7Z" fill="#1e61f0"/>
</svg>

<svg xmlns="http://www.w3.org/2000/svg" width="14" height="14" fill="none"><path fill="#004AB3FF" d="M12.688.875H1.312C.589.875 0 1.463 0 2.188v9.624c0 .725.588 1.313 1.313 1.313h11.374c.725 0 1.313-.588 1.313-1.313V2.188c0-.725-.588-1.313-1.313-1.313Zm-6.563 10.5H1.75V8.75h4.375v2.625Zm0-4.375H1.75V4.375h4.375V7Zm6.125 4.375H7.875V8.75h4.375v2.625Zm0-4.375H7.875V4.375h4.375V7Z"/></svg>
